X:17
T:Caro Dolce. 2voices. Dix.17
M:2/4
L:1/8
Q:1/4=100
S:Anon. MS dated 1811, from Dixon collection, Holton le Moor, Lincs.
R:air
N:Repeat marks added at start
O:England;Lincolnshire;Holton le Moor
Z:vmp.R.Greig 2010 <http://www.village-music-project.org.uk>
K:Bb
[V:1]|:{c}BA|BEdB|GEcB|Acfe|{e}d2{c}BA|BFdB|GEcB|AFGA|B2:|
[V:2]|:z2|B,,,2B,,2|E,,2E,2|F,,2F,2|B,,2z2|B,,,2B,,2|E,,2E,2|F,,2F,2|[D,2B,,2]:|
[V:1]|:d’c’|b2df|e2cg|fgfe|d2d’c’|b2df|e2eg|f2A2|B2:|
[V:2]|:z2|B,,,2B,,2|E,,2E,2|F,,2F,2|B,,2z2|B,,,2B,,2|E,,2E,2|F,,2F,2|[B,,2D,2]:|

